src/components/character/sources/pants/french_pants_light_blue.svg

<?xml version="1.0" encoding="UTF-8" standalone="no"?>
<svg
   xmlns:dc="http://purl.org/dc/elements/1.1/"
   xmlns:cc="http://creativecommons.org/ns#"
   xmlns:rdf="http://www.w3.org/1999/02/22-rdf-syntax-ns#"
   xmlns:svg="http://www.w3.org/2000/svg"
   xmlns="http://www.w3.org/2000/svg"
   xmlns:xlink="http://www.w3.org/1999/xlink"
   xmlns:sodipodi="http://sodipodi.sourceforge.net/DTD/sodipodi-0.dtd"
   xmlns:inkscape="http://www.inkscape.org/namespaces/inkscape"
   inkscape:export-ydpi="300"
   inkscape:export-xdpi="300"
   inkscape:export-filename="C:\Users\johan\Bohne.png"
   sodipodi:docname="french_pants_light_blue.svg"
   inkscape:version="1.0.1 (3bc2e813f5, 2020-09-07)"
   id="svg8"
   version="1.1"
   viewBox="0 0 77.706579 108.77032"
   height="411.1004"
   width="293.69418">
  <defs
     id="defs2">
    <inkscape:path-effect
       effect="powerstroke"
       id="path-effect1052"
       is_visible="true"
       lpeversion="1"
       offset_points="0,0.4499995"
       sort_points="true"
       interpolator_type="CubicBezierJohan"
       interpolator_beta="0.2"
       start_linecap_type="zerowidth"
       linejoin_type="extrp_arc"
       miter_limit="4"
       scale_width="1"
       end_linecap_type="zerowidth" />
    <inkscape:path-effect
       effect="powerstroke"
       id="path-effect1046"
       is_visible="true"
       lpeversion="1"
       offset_points="0,0.2499995"
       sort_points="true"
       interpolator_type="CubicBezierJohan"
       interpolator_beta="0.2"
       start_linecap_type="zerowidth"
       linejoin_type="extrp_arc"
       miter_limit="4"
       scale_width="1"
       end_linecap_type="zerowidth" />
    <linearGradient
       inkscape:collect="always"
       id="linearGradient1004">
      <stop
         style="stop-color:#fffaff;stop-opacity:1;"
         offset="0"
         id="stop1000" />
      <stop
         style="stop-color:#ffd6ff;stop-opacity:1"
         offset="1"
         id="stop1002" />
    </linearGradient>
    <linearGradient
       inkscape:collect="always"
       xlink:href="#linearGradient1004"
       id="linearGradient1006"
       x1="76.360389"
       y1="116.14733"
       x2="77.155518"
       y2="116.23211"
       gradientUnits="userSpaceOnUse"
       gradientTransform="translate(0.01795197,0.02339935)" />
  </defs>
  <sodipodi:namedview
     inkscape:snap-object-midpoints="true"
     units="px"
     fit-margin-bottom="20"
     fit-margin-right="20"
     fit-margin-left="20"
     fit-margin-top="20"
     lock-margins="false"
     inkscape:window-maximized="1"
     inkscape:window-y="-11"
     inkscape:window-x="-11"
     inkscape:window-height="1346"
     inkscape:window-width="2160"
     inkscape:snap-nodes="true"
     inkscape:object-paths="true"
     inkscape:snap-smooth-nodes="true"
     showgrid="false"
     inkscape:document-rotation="0"
     inkscape:current-layer="layer4"
     inkscape:document-units="mm"
     inkscape:cy="145.3209"
     inkscape:cx="-195.61152"
     inkscape:zoom="1"
     inkscape:pageshadow="2"
     inkscape:pageopacity="0.0"
     borderopacity="1.0"
     bordercolor="#666666"
     pagecolor="#ffffff"
     id="base"
     showguides="true"
     inkscape:guide-bbox="true">
    <sodipodi:guide
       position="7.5406243,38.920321"
       orientation="0,-1"
       id="guide899" />
    <sodipodi:guide
       id="guide881"
       orientation="1,0"
       position="38.820489,102.42969" />
    <sodipodi:guide
       position="54.438016,56.97813"
       orientation="0,-1"
       id="guide892" />
    <sodipodi:guide
       position="38.820489,73.106536"
       orientation="0,-1"
       id="guide1040" />
  </sodipodi:namedview>
  <metadata
     id="metadata5">
    <rdf:RDF>
      <cc:Work
         rdf:about="">
        <dc:format>image/svg+xml</dc:format>
        <dc:type
           rdf:resource="http://purl.org/dc/dcmitype/StillImage" />
        <dc:title></dc:title>
      </cc:Work>
    </rdf:RDF>
  </metadata>
  <g
     transform="translate(-38.136244,-44.878254)"
     style="display:inline"
     id="layer1"
     inkscape:groupmode="layer"
     inkscape:label="Body">
    <path
       id="path1061"
       style="fill:#ffffff;fill-opacity:1;stroke:none;stroke-width:0.335388;stroke-linecap:round;stroke-linejoin:bevel;stroke-miterlimit:4;stroke-dasharray:none;stroke-opacity:1"
       d="m 68.583792,59.100081 c -4.216396,2.212808 -4.137399,5.203559 -6.848888,5.069084 -2.435709,-0.1208 -0.148435,-4.190036 3.136594,-6.399604 3.442285,-2.31534 6.368359,-3.648691 8.550789,-3.051539 2.817041,0.770792 -3.335644,3.593347 -4.838495,4.382059 z"
       sodipodi:nodetypes="sssss" />
  </g>
  <g
     inkscape:label="Gesicht"
     id="layer4"
     inkscape:groupmode="layer" />
  <g
     inkscape:groupmode="layer"
     id="layer5"
     inkscape:label="Hut" />
  <g
     transform="translate(-38.136244,-44.878254)"
     inkscape:label="Hose"
     id="layer3"
     inkscape:groupmode="layer">
    <g
       id="g1038">
      <path
         id="path990"
         style="display:inline;fill:#3e90cc;fill-opacity:1;stroke:#2f7bb1;stroke-width:3.77953;stroke-miterlimit:4;stroke-dasharray:none;stroke-opacity:1"
         d="M 64.279297 264 C 67.329308 298.4996 99.549595 325.15604 116.20703 326.56641 L 116.31055 391.5 L 127.79297 391.5 L 127.62891 330.80078 C 134.1252 331.6113 140.88053 332.68793 146.72266 332.60742 C 152.56478 332.68793 159.32012 331.6113 165.81641 330.80078 L 165.6543 391.5 L 177.13672 391.5 L 177.23828 326.56641 C 193.89572 325.15604 226.11796 298.4996 229.16797 264 L 146.72266 264 L 64.279297 264 z "
         transform="matrix(0.26458333,0,0,0.26458333,38.136244,44.878254)" />
      <g
         id="g1028">
        <path
           style="fill:#3e90cc;fill-opacity:1;stroke:#2f7bb1;stroke-width:0.5;stroke-miterlimit:4;stroke-dasharray:none;stroke-opacity:1"
           d="m 75.726689,114.72825 v 6.70458 h 2.525696 v -6.70458 z"
           id="path996"
           sodipodi:nodetypes="ccccc" />
        <g
           id="g1020">
          <g
             id="g1012">
            <circle
               style="fill:#2f7bb1;fill-opacity:1;stroke:none;stroke-width:0.499999;stroke-miterlimit:4;stroke-dasharray:none;stroke-opacity:1"
               id="path1008"
               cx="76.974686"
               cy="116.17073"
               r="0.77758729" />
            <circle
               style="fill:url(#linearGradient1006);fill-opacity:1;stroke:none;stroke-width:0.499999;stroke-miterlimit:4;stroke-dasharray:none;stroke-opacity:1"
               id="path998"
               cx="76.974686"
               cy="116.17073"
               r="0.59634513" />
          </g>
          <path
             style="fill:#fffaff;fill-opacity:1;stroke:#2f7bb1;stroke-width:0.499999;stroke-miterlimit:4;stroke-dasharray:none;stroke-opacity:1"
             d="m 76.956733,117.32834 v 3.48453"
             id="path1014" />
        </g>
      </g>
    </g>
  </g>
  <g
     transform="translate(-38.136244,-44.878254)"
     style="display:inline"
     inkscape:label="Shirt"
     id="layer2"
     inkscape:groupmode="layer" />
</svg>

<svg width="293.69" height="411.1" version="1.1" viewBox="0 0 77.707 108.77" xmlns="http://www.w3.org/2000/svg" xmlns:xlink="http://www.w3.org/1999/xlink">
 <defs>
  <linearGradient id="linearGradient1006" x1="76.36" x2="77.156" y1="116.15" y2="116.23" gradientTransform="translate(.017952 .023399)" gradientUnits="userSpaceOnUse">
   <stop stop-color="#fffaff" offset="0"/>
   <stop stop-color="#ffd6ff" offset="1"/>
  </linearGradient>
 </defs>
 <g transform="translate(-38.136 -44.878)">
  <path d="m68.584 59.1c-4.2164 2.2128-4.1374 5.2036-6.8489 5.0691-2.4357-0.1208-0.14844-4.19 3.1366-6.3996 3.4423-2.3153 6.3684-3.6487 8.5508-3.0515 2.817 0.77079-3.3356 3.5933-4.8385 4.3821z" fill="#fff"/>
 </g>
 <g transform="translate(-38.136 -44.878)">
  <g>
   <path transform="matrix(.26458 0 0 .26458 38.136 44.878)" d="m64.279 264c3.05 34.5 35.27 61.156 51.928 62.566l0.10352 64.934h11.482l-0.16406-60.699c6.4963 0.81052 13.252 1.8872 19.094 1.8066 5.8421 0.08051 12.597-0.99612 19.094-1.8066l-0.16211 60.699h11.482l0.10156-64.934c16.657-1.4104 48.88-28.067 51.93-62.566h-82.445-82.443z" fill="#3e90cc" stroke="#2f7bb1" stroke-width="3.7795"/>
   <g>
    <path d="m75.727 114.73v6.7046h2.5257v-6.7046z" fill="#3e90cc" stroke="#2f7bb1" stroke-width=".5"/>
    <g>
     <g>
      <circle cx="76.975" cy="116.17" r=".77759" fill="#2f7bb1"/>
      <circle cx="76.975" cy="116.17" r=".59635" fill="url(#linearGradient1006)"/>
     </g>
     <path d="m76.957 117.33v3.4845" fill="#fffaff" stroke="#2f7bb1" stroke-width=".5"/>
    </g>
   </g>
  </g>
 </g>
</svg>
